src/pos-icons/human-male-male.svg

<svg height="24" viewBox="0 0 24 24" width="24" xmlns="http://www.w3.org/2000/svg"><path d="m7.5 2a2 2 0 0 1 2 2 2 2 0 0 1 -2 2 2 2 0 0 1 -2-2 2 2 0 0 1 2-2m-1.5 5h3a2 2 0 0 1 2 2v5.5h-1.5v7.5h-4v-7.5h-1.5v-5.5a2 2 0 0 1 2-2m10.5-5a2 2 0 0 1 2 2 2 2 0 0 1 -2 2 2 2 0 0 1 -2-2 2 2 0 0 1 2-2m-1.5 5h3a2 2 0 0 1 2 2v5.5h-1.5v7.5h-4v-7.5h-1.5v-5.5a2 2 0 0 1 2-2z"/></svg>

<?xml version="1.0" encoding="UTF-8"?><!DOCTYPE svg PUBLIC "-//W3C//DTD SVG 1.1//EN" "http://www.w3.org/Graphics/SVG/1.1/DTD/svg11.dtd"><svg xmlns="http://www.w3.org/2000/svg" xmlns:xlink="http://www.w3.org/1999/xlink" version="1.1" id="mdi-human-male-male" width="24" height="24" viewBox="0 0 24 24"><path d="M7.5,2A2,2 0 0,1 9.5,4A2,2 0 0,1 7.5,6A2,2 0 0,1 5.5,4A2,2 0 0,1 7.5,2M6,7H9A2,2 0 0,1 11,9V14.5H9.5V22H5.5V14.5H4V9A2,2 0 0,1 6,7M16.5,2A2,2 0 0,1 18.5,4A2,2 0 0,1 16.5,6A2,2 0 0,1 14.5,4A2,2 0 0,1 16.5,2M15,7H18A2,2 0 0,1 20,9V14.5H18.5V22H14.5V14.5H13V9A2,2 0 0,1 15,7Z" /></svg>
